packages/components/src/telekom/icons/content/wallet/selected.svg

<svg height="24" width="24" xmlns="http://www.w3.org/2000/svg"><path d="m15.7.225.925 2.775h3.875v2h1.5v6h-6a2.5 2.5 0 1 0 0 5h6v3a3 3 0 0 1 -3 3h-14a3 3 0 0 1 -3-3v-13a3 3 0 0 1 3-3h4.535zm6.3 12.275v2h-6a1 1 0 1 1 0-2zm-7.2-10.225-6.055 2.725h6.965z" fill="#262626" fill-rule="evenodd"/></svg>

<svg width="24" height="24" xmlns="http://www.w3.org/2000/svg"><path d="M15.7.225L16.625 3H20.5v2H22v6h-6a2.5 2.5 0 00-.164 4.995L16 16h6v3a3 3 0 01-2.824 2.995L19 22H5a3 3 0 01-2.995-2.824L2 19V6a3 3 0 012.824-2.995L5 3h4.535L15.7.225zM22 12.5v2h-6a1 1 0 01-.117-1.993L16 12.5h6zM14.8 2.275L8.745 5h6.965l-.91-2.725z" fill="#000" fill-rule="evenodd"/></svg>
